;FLAVOR:Marlin
;TIME:6590
;Filament used: 12.2867m
;Layer height: 0.3
;MINX:68.93
;MINY:63.95
;MINZ:0.2
;MAXX:181.07
;MAXY:146.05
;MAXZ:23
;Generated with Cura_SteamEngine 5.0.0
M82 ;absolute extrusion mode
G21 ; set units to millimeters
G90 ; use absolute positioning
M82 ; absolute extrusion mode
M104 S210 ; set extruder temp
M140 S60 ; set bed temp
M190 S60 ; wait for bed temp
M109 S210 ; wait for extruder temp
G28 W ; home all without mesh bed level
G80 ; mesh bed leveling
G92 E0.0 ; reset extruder distance position
G1 Y-3.0 F1000.0 ; go outside print area
G1 X60.0 E9.0 F1000.0 ; intro line
G1 X100.0 E21.5 F1000.0 ; intro line
G92 E0.0 ; reset extruder distance position
G92 E0
G92 E0
G1 F2100 E-0.8
;LAYER_COUNT:77
;LAYER:0
M107
G1 F600 Z0.7
G0 F3600 X79.983 Y76.94 Z0.7
G1 F600 Z0.2
G0 F3600 X76.066 Y81.828
;TYPE:SKIRT
G1 F2100 E0
G1 F1800 X76.464 Y81.219 E0.03025
G1 X77.076 Y80.416 E0.07222
G1 X78.895 Y78.154 E0.1929
G1 X79.375 Y77.576 E0.22414
G1 X79.983 Y76.94 E0.26072
G1 X82.113 Y74.828 E0.38543
G1 X82.63 Y74.33 E0.41527
G1 X83.421 Y73.674 E0.45799
G1 X85.682 Y71.887 E0.57781
G1 X86.255 Y71.448 E0.60782
G1 X87.124 Y70.878 E0.65103
G1 X89.529 Y69.385 E0.76872
G1 X90.189 Y68.989 E0.80072
G1 X91.05 Y68.553 E0.84084
G1 X93.755 Y67.27 E0.96531
G1 X94.39 Y66.982 E0.9943
G1 X95.255 Y66.66 E1.03267
G1 X98.04 Y65.706 E1.15506
G1 X98.755 Y65.473 E1.18633
G1 X99.698 Y65.239 E1.22672
G1 X102.522 Y64.616 E1.34695
G1 X103.268 Y64.463 E1.37861
G1 X104.175 Y64.344 E1.41665
G1 X107.15 Y64.031 E1.54102
G1 X107.864 Y63.967 E1.57082
G1 X108.807 Y63.95 E1.61003
G1 X111.831 Y63.975 E1.73576
G1 X112.525 Y63.993 E1.76462
G1 X113.467 Y64.084 E1.80397
G1 X116.402 Y64.441 E1.92689
G1 X117.096 Y64.536 E1.95601
G1 X118.048 Y64.737 E1.99646
G1 X120.952 Y65.429 E2.12058
G1 X121.595 Y65.592 E2.14816
G1 X122.567 Y65.916 E2.19075
G1 X125.317 Y66.909 E2.31231
G1 X125.974 Y67.158 E2.34152
G1 X126.632 Y67.459 E2.37161
G1 X129.095 Y68.593 E2.48434
G1 X131.635 Y69.676 E2.59914
G1 X134.188 Y70.681 E2.71321
G1 X136.746 Y71.604 E2.82627
G1 X139.343 Y72.459 E2.93994
G1 X141.982 Y73.246 E3.05443
G1 X144.635 Y73.956 E3.16861
G1 X147.3 Y74.589 E3.28249
G1 X149.981 Y75.147 E3.39634
G1 X152.648 Y75.623 E3.50898
G1 X155.343 Y76.026 E3.62227
G1 X158.103 Y76.359 E3.73785
G1 X160.807 Y76.608 E3.85074
G1 X163.52 Y76.781 E3.96376
G1 X166.27 Y76.878 E4.07817
G1 X168.35 Y76.9 E4.16465
G1 X177.164 Y76.9 E4.53109
G1 X177.862 Y76.911 E4.56011
G1 X178.369 Y76.959 E4.58129
G1 X178.863 Y77.086 E4.60249
G1 X179.331 Y77.288 E4.62369
G1 X179.761 Y77.561 E4.64486
G1 X180.143 Y77.898 E4.66604
G1 X180.468 Y78.29 E4.68721
G1 X180.728 Y78.728 E4.70839
G1 X180.916 Y79.202 E4.72959
G1 X181.028 Y79.699 E4.75077
G1 X181.069 Y80.388 E4.77946
G1 X181.07 Y129.154 E6.80692
G1 X181.061 Y129.881 E6.83715
G1 X181.015 Y130.389 E6.85835
G1 X180.89 Y130.883 E6.87954
G1 X180.689 Y131.351 E6.90071
G1 X180.418 Y131.782 E6.92188
G1 X180.082 Y132.166 E6.94309
G1 X179.691 Y132.492 E6.96426
G1 X179.253 Y132.753 E6.98546
G1 X178.781 Y132.943 E7.00661
G1 X178.284 Y133.056 E7.0278
G1 X177.602 Y133.099 E7.05621
G1 X168.348 Y133.101 E7.44095
G1 X165.554 Y133.141 E7.55712
G1 X162.84 Y133.257 E7.67006
G1 X160.097 Y133.451 E7.78438
G1 X157.389 Y133.721 E7.89753
G1 X154.668 Y134.069 E8.01158
G1 X151.95 Y134.495 E8.12596
G1 X149.287 Y134.991 E8.23858
G1 X146.609 Y135.565 E8.35244
G1 X143.93 Y136.224 E8.46714
G1 X141.321 Y136.943 E8.57966
G1 X138.675 Y137.753 E8.6947
G1 X136.082 Y138.628 E8.80848
G1 X133.539 Y139.566 E8.92117
G1 X130.972 Y140.597 E9.03618
G1 X128.494 Y141.675 E9.14853
G1 X126.144 Y142.77 E9.25631
G1 X125.334 Y143.084 E9.29243
G1 X122.522 Y144.101 E9.41675
G1 X121.858 Y144.33 E9.44595
G1 X120.939 Y144.575 E9.4855
G1 X118.05 Y145.261 E9.60895
G1 X117.331 Y145.421 E9.63957
G1 X116.387 Y145.561 E9.67925
G1 X113.466 Y145.916 E9.80158
G1 X112.748 Y145.993 E9.8316
G1 X111.804 Y146.026 E9.87087
G1 X108.796 Y146.05 E9.99594
G1 X108.11 Y146.045 E10.02446
G1 X107.168 Y145.971 E10.06374
G1 X104.209 Y145.66 E10.18744
G1 X103.509 Y145.576 E10.21675
G1 X102.561 Y145.392 E10.2569
G1 X99.723 Y144.766 E10.37773
G1 X98.995 Y144.594 E10.40883
G1 X98.078 Y144.307 E10.44878
G1 X95.249 Y143.338 E10.5731
G1 X94.593 Y143.101 E10.6021
G1 X93.743 Y142.725 E10.64074
G1 X91.048 Y141.446 E10.76476
G1 X90.384 Y141.118 E10.79555
G1 X89.595 Y140.657 E10.83355
G1 X87.07 Y139.089 E10.95712
G1 X86.476 Y138.708 E10.98646
G1 X85.683 Y138.114 E11.02765
G1 X83.419 Y136.325 E11.14761
G1 X82.792 Y135.813 E11.18127
G1 X82.177 Y135.236 E11.21633
G1 X80.002 Y133.078 E11.34371
G1 X79.525 Y132.59 E11.37208
G1 X78.884 Y131.833 E11.41332
G1 X77.088 Y129.597 E11.53256
G1 X76.613 Y128.989 E11.56464
G1 X76.076 Y128.189 E11.6047
G1 X74.503 Y125.7 E11.72711
G1 X74.123 Y125.079 E11.75738
G1 X73.685 Y124.233 E11.79698
G1 X72.409 Y121.597 E11.91874
G1 X72.083 Y120.896 E11.95088
G1 X71.748 Y120.016 E11.99003
G1 X70.769 Y117.236 E12.11257
G1 X70.54 Y116.552 E12.14256
G1 X70.307 Y115.644 E12.18153
G1 X69.633 Y112.712 E12.30661
G1 X69.491 Y112.048 E12.33484
G1 X69.355 Y111.075 E12.37568
G1 X69.022 Y108.131 E12.49886
G1 X68.954 Y107.433 E12.52802
G1 X68.93 Y106.495 E12.56703
G1 X68.93 Y103.52 E12.69071
G1 X68.942 Y102.787 E12.72119
G1 X69.025 Y101.847 E12.76043
G1 X69.354 Y98.942 E12.88197
G1 X69.449 Y98.204 E12.91291
G1 X69.641 Y97.252 E12.95329
G1 X70.303 Y94.37 E13.07623
G1 X70.469 Y93.696 E13.10508
G1 X70.783 Y92.727 E13.14743
G1 X71.738 Y90.012 E13.26709
G1 X72.004 Y89.295 E13.29888
G1 X72.384 Y88.456 E13.33718
G1 X73.679 Y85.78 E13.46077
G1 X73.994 Y85.151 E13.49002
G1 X74.494 Y84.313 E13.53059
G1 X75.724 Y82.368 E13.62627
G0 F1620 X76.066 Y81.828
G1 F2100 E12.82627
;MESH:cycl drive 2 in output.STL
G0 F3600 X78.251 Y83.211
G0 X79.176 Y83.796
G0 X90.527 Y88.174
G1 F2100 E13.62627
G0 F3600 X91.053 Y88.312
;TYPE:WALL-OUTER
G1 F1800 X91.309 Y87.738 E13.64822
G1 X91.663 Y87.216 E13.67024
G1 X92.104 Y86.763 E13.69232
G1 X92.614 Y86.395 E13.71429
G1 X92.646 Y86.376 E13.71559
G1 X93.184 Y86.119 E13.73641
G1 X93.787 Y85.946 E13.75832
G1 X94.443 Y85.882 E13.78133
G1 X95.048 Y85.929 E13.80253
G1 X95.658 Y86.084 E13.82451
G1 X96.231 Y86.339 E13.84641
G1 X96.754 Y86.693 E13.86847
G1 X97.207 Y87.134 E13.89054
G1 X97.575 Y87.644 E13.91251
G1 X97.851 Y88.213 E13.93459
G1 X98.024 Y88.818 E13.95657
G1 X98.088 Y89.444 E13.97854
G1 X98.041 Y90.077 E14.00071
G1 X97.886 Y90.687 E14.02269
G1 X97.631 Y91.261 E14.04463
G1 X97.276 Y91.785 E14.06673
G1 X96.836 Y92.236 E14.08873
G1 X96.326 Y92.605 E14.11072
G1 X95.756 Y92.881 E14.13284
G1 X95.152 Y93.054 E14.15478
G1 X94.524 Y93.118 E14.17682
G1 X93.892 Y93.071 E14.19896
G1 X93.282 Y92.916 E14.22094
G1 X92.707 Y92.66 E14.24292
G1 X92.186 Y92.307 E14.26489
G1 X91.731 Y91.864 E14.28707
G1 X91.364 Y91.354 E14.30901
G1 X91.089 Y90.787 E14.33102
G1 X90.912 Y90.162 E14.35371
G1 X90.858 Y89.613 E14.37297
G1 X90.892 Y89.053 E14.39257
G0 F1620 X90.899 Y88.923
G0 X91.053 Y88.312
G0 F3600 X91.134 Y88.13
G0 X90.637 Y87.901
G0 X91.329 Y86.857
G0 X92.32 Y86.016
G0 X93.641 Y85.422
G0 X93.669 Y85.528
;TYPE:WALL-INNER
G1 F1800 X94.403 Y85.449 E14.42019
G1 X94.933 Y85.483 E14.44006
G1 X95.192 Y85.514 E14.44982
G1 X95.767 Y85.663 E14.47205
G1 X96.41 Y85.942 E14.49827
G1 X97 Y86.334 E14.52478
G1 X97.512 Y86.824 E14.5513
G1 X97.929 Y87.392 E14.57766
G1 X98.243 Y88.025 E14.6041
G1 X98.443 Y88.7 E14.63044
G1 X98.521 Y89.402 E14.65687
G1 X98.474 Y90.111 E14.68346
G1 X98.307 Y90.797 E14.70988
G1 X98.028 Y91.439 E14.73607
G1 X97.635 Y92.031 E14.76266
G1 X97.238 Y92.448 E14.7842
G1 X96.736 Y92.846 E14.80817
G1 X96.482 Y93.017 E14.81963
G1 X95.907 Y93.29 E14.84345
G1 X95.27 Y93.472 E14.86824
G1 X94.565 Y93.551 E14.89478
G1 X93.858 Y93.505 E14.92129
G1 X93.172 Y93.337 E14.94772
G1 X92.528 Y93.057 E14.97399
G1 X91.94 Y92.666 E15.00042
G1 X91.426 Y92.174 E15.02704
G1 X91.127 Y91.772 E15.04579
G1 X90.952 Y91.511 E15.05754
G1 X90.696 Y90.975 E15.07977
G1 X90.493 Y90.278 E15.10693
G1 X90.425 Y89.653 E15.13046
G1 X90.466 Y88.888 E15.15912
G1 X90.632 Y88.204 E15.18546
G1 X90.913 Y87.559 E15.21179
G1 X91.209 Y87.109 E15.23194
G1 X91.377 Y86.882 E15.24251
G1 X91.799 Y86.453 E15.26502
G1 X92.362 Y86.041 E15.29113
G1 X92.458 Y85.983 E15.29532
G1 X92.987 Y85.73 E15.31727
G0 F1620 X92.996 Y85.726
G0 X93.669 Y85.528
G0 F3600 X93.641 Y85.422
G0 X94.89 Y85.433
G0 X97.254 Y85.963
G1 F1800 X97.827 Y86.503 E15.34673
G1 X98.295 Y87.13 E15.376
G1 X98.55 Y87.626 E15.39687
G1 X98.716 Y88.008 E15.41245
G1 X98.883 Y88.607 E15.43572
G1 X98.969 Y89.359 E15.46404
G1 X98.923 Y90.147 E15.49358
G1 X98.742 Y90.91 E15.52292
G1 X98.527 Y91.426 E15.54384
G1 X98.343 Y91.793 E15.5592
G1 X97.991 Y92.306 E15.58248
G1 X97.637 Y92.683 E15.60183
G1 X97.324 Y92.979 E15.61795
G1 X96.786 Y93.362 E15.64266
G1 X96.138 Y93.68 E15.66967
G1 X95.655 Y93.831 E15.6886
G1 X95.2 Y93.941 E15.70612
G1 X94.59 Y94 E15.72905
G1 X93.822 Y93.953 E15.75784
G1 X93.324 Y93.841 E15.77694
G1 X92.884 Y93.711 E15.79411
G1 X92.343 Y93.467 E15.81631
G1 X91.686 Y93.037 E15.8457
G1 X91.111 Y92.495 E15.87526
G1 X90.761 Y92.034 E15.89692
G1 X90.546 Y91.704 E15.91166
G1 X90.29 Y91.168 E15.93388
G1 X90.059 Y90.398 E15.96396
G1 X89.977 Y89.694 E15.99048
G1 X90.017 Y88.853 E16.02199
G1 X90.134 Y88.331 E16.042
G1 X90.259 Y87.914 E16.05829
G1 X90.503 Y87.374 E16.08047
G1 X90.837 Y86.854 E16.10359
G1 X91.056 Y86.567 E16.1171
G1 X91.482 Y86.133 E16.13985
G1 X92.1 Y85.674 E16.16866
G1 X92.264 Y85.577 E16.17579
G1 X92.803 Y85.32 E16.19813
G1 X93.547 Y85.094 E16.22723
G1 X94.362 Y85.001 E16.25792
G1 X94.97 Y85.034 E16.2807
G1 X95.305 Y85.078 E16.29335
G1 X95.88 Y85.227 E16.31557
G1 X96.595 Y85.532 E16.34466
G1 X96.659 Y85.574 E16.34752
G0 F1620 X97.254 Y85.963
G1 F2100 E15.54752
G0 F3600 X124.847 Y93.612
G1 F2100 E16.34752
G0 F3600 X124.892 Y93.071
;TYPE:WALL-OUTER
G1 F1800 X124.282 Y92.916 E16.3695
G1 X123.707 Y92.66 E16.39148
G1 X123.186 Y92.307 E16.41346
G1 X122.812 Y91.944 E16.43166
G1 X122.498 Y91.542 E16.44948
G1 X122.345 Y91.323 E16.45881
G1 X122.078 Y90.76 E16.48057
G1 X121.911 Y90.158 E16.50238
G1 X121.852 Y89.552 E16.52365
G1 X121.899 Y88.923 E16.54568
G1 X122.053 Y88.312 E16.56768
G1 X122.309 Y87.738 E16.58963
G1 X122.663 Y87.216 E16.61166
G1 X123.104 Y86.763 E16.63374
G1 X123.614 Y86.395 E16.6557
G1 X124.184 Y86.119 E16.67782
G1 X124.787 Y85.946 E16.69972
G1 X125.443 Y85.882 E16.72274
G1 X126.048 Y85.929 E16.74393
G1 X126.658 Y86.084 E16.76592
G1 X127.231 Y86.339 E16.78782
G1 X127.754 Y86.693 E16.80987
G1 X128.207 Y87.134 E16.83195
G1 X128.575 Y87.644 E16.85392
G1 X128.851 Y88.213 E16.876
G1 X129.024 Y88.818 E16.89798
G1 X129.088 Y89.444 E16.91995
G1 X129.041 Y90.077 E16.94212
G1 X128.886 Y90.687 E16.9641
G1 X128.631 Y91.261 E16.98603
G1 X128.276 Y91.785 E17.00814
G1 X127.836 Y92.236 E17.03014
G1 X127.326 Y92.605 E17.05213
G1 X126.756 Y92.881 E17.07424
G1 X126.152 Y93.054 E17.09619
G1 X125.651 Y93.106 E17.11378
G0 F1620 X125.524 Y93.118
G0 X124.892 Y93.071
G0 F3600 X124.699 Y93.022
G0 X124.56 Y93.551
G0 X123.403 Y93.044
G0 X122.31 Y92.115
G0 X121.665 Y91.006
G0 X121.31 Y89.6
G0 X121.419 Y89.592
;TYPE:WALL-INNER
G1 F1800 X121.466 Y88.888 E17.14018
G1 X121.632 Y88.204 E17.16651
G1 X121.913 Y87.559 E17.19284
G1 X122.305 Y86.97 E17.21931
G1 X122.794 Y86.458 E17.2458
G1 X123.362 Y86.041 E17.27217
G1 X123.996 Y85.726 E17.29866
G1 X124.669 Y85.528 E17.32491
G1 X125.403 Y85.449 E17.35253
G1 X126.084 Y85.496 E17.37807
G1 X126.767 Y85.663 E17.40438
G1 X127.41 Y85.942 E17.43061
G1 X128 Y86.334 E17.45711
G1 X128.401 Y86.715 E17.47781
G1 X128.584 Y86.909 E17.48779
G1 X128.929 Y87.392 E17.51
G1 X129.243 Y88.025 E17.53644
G1 X129.443 Y88.7 E17.56278
G1 X129.521 Y89.402 E17.58921
G1 X129.475 Y90.111 E17.6158
G1 X129.307 Y90.797 E17.64222
G1 X129.028 Y91.439 E17.66842
G1 X128.635 Y92.031 E17.695
G1 X128.146 Y92.541 E17.72144
G1 X127.736 Y92.846 E17.74056
G1 X127.482 Y93.017 E17.75202
G1 X126.907 Y93.29 E17.77584
G1 X126.27 Y93.472 E17.80062
G1 X125.565 Y93.551 E17.82717
G1 X124.858 Y93.505 E17.85368
G1 X124.172 Y93.337 E17.88011
G1 X123.528 Y93.057 E17.90638
G1 X122.94 Y92.666 E17.9328
G1 X122.507 Y92.254 E17.95517
G1 X122.143 Y91.795 E17.97709
G1 X121.952 Y91.51 E17.98993
G1 X121.689 Y90.958 E18.0128
G1 X121.499 Y90.299 E18.03847
G0 F1620 X121.493 Y90.278
G0 X121.419 Y89.592
G0 F3600 X121.31 Y89.6
G0 X121.563 Y88.304
G0 X122.473 Y86.143
G1 F1800 X123.1 Y85.674 E18.06777
G1 X123.802 Y85.32 E18.09718
G1 X124.547 Y85.094 E18.12631
G1 X125.362 Y85.001 E18.15701
G1 X126.121 Y85.047 E18.18546
G1 X126.88 Y85.227 E18.21465
G1 X127.595 Y85.532 E18.24373
G1 X128.254 Y85.963 E18.2732
G1 X128.716 Y86.394 E18.29684
G1 X128.951 Y86.647 E18.30976
G1 X129.296 Y87.13 E18.33197
G1 X129.649 Y87.831 E18.36134
G1 X129.876 Y88.579 E18.39059
G1 X129.968 Y89.359 E18.41997
G1 X129.923 Y90.147 E18.44951
G1 X129.742 Y90.91 E18.47885
G1 X129.438 Y91.624 E18.50789
G1 X129.006 Y92.285 E18.53743
G1 X128.635 Y92.685 E18.55785
G1 X128.324 Y92.979 E18.57386
G1 X127.786 Y93.362 E18.59857
G1 X127.138 Y93.68 E18.62558
G1 X126.655 Y93.831 E18.64451
G1 X126.2 Y93.941 E18.66203
G1 X125.59 Y94 E18.68496
G1 X124.822 Y93.953 E18.71375
G1 X124.324 Y93.841 E18.73285
G1 X124.059 Y93.772 E18.7431
G1 X123.552 Y93.562 E18.76363
G1 X123.175 Y93.372 E18.77943
G1 X122.665 Y93.022 E18.80257
G1 X122.271 Y92.652 E18.8228
G1 X121.987 Y92.351 E18.83828
G1 X121.628 Y91.847 E18.86143
G1 X121.383 Y91.362 E18.88177
G1 X121.223 Y90.989 E18.89695
G1 X121.054 Y90.377 E18.92071
G1 X120.971 Y89.633 E18.94872
G1 X121.017 Y88.853 E18.97796
G1 X121.131 Y88.342 E18.99755
G1 X121.259 Y87.914 E19.01426
G1 X121.528 Y87.321 E19.03863
G1 X121.933 Y86.715 E19.0659
G1 X121.985 Y86.66 E19.06873
G0 F1620 X122.473 Y86.143
G1 F2100 E18.26873
G0 F3600 X124.787 Y85.456
G0 X151.26 Y86.202
G1 F2100 E19.06873
G0 F3600 X151.802 Y86.155
;TYPE:WALL-OUTER
G1 F1800 X151.849 Y85.525 E19.0908
G1 X152.003 Y84.915 E19.11277
G1 X152.26 Y84.341 E19.13473
G1 X152.614 Y83.819 E19.15676
G1 X153.054 Y83.367 E19.17879
G1 X153.566 Y82.997 E19.20085
G1 X154.133 Y82.723 E19.22284
G1 X154.739 Y82.55 E19.24485
G1 X155.394 Y82.486 E19.26783
G1 X155.999 Y82.533 E19.28902
G1 X156.61 Y82.687 E19.31103
G1 X157.183 Y82.944 E19.33296
G1 X157.704 Y83.298 E19.35496
G1 X158.156 Y83.738 E19.37699
G1 X158.525 Y84.25 E19.39903
G1 X158.801 Y84.818 E19.42108
G1 X158.973 Y85.423 E19.44305
G1 X159.038 Y86.049 E19.46503
G1 X158.99 Y86.683 E19.48723
G1 X158.836 Y87.293 E19.5092
G1 X158.579 Y87.867 E19.53117
G1 X158.225 Y88.388 E19.55317
G1 X157.785 Y88.841 E19.57522
G1 X157.275 Y89.209 E19.59718
G1 X156.707 Y89.485 E19.61924
G1 X156.101 Y89.658 E19.64125
G1 X155.473 Y89.722 E19.66329
G1 X154.841 Y89.675 E19.68542
G1 X154.229 Y89.52 E19.70747
G1 X153.655 Y89.263 E19.72944
G1 X153.135 Y88.91 E19.75138
G1 X152.68 Y88.467 E19.77356
G1 X152.313 Y87.957 E19.79551
G1 X152.038 Y87.39 E19.81751
G1 X151.902 Y86.908 E19.835
G0 F1620 X151.862 Y86.765
G0 X151.802 Y86.155
G0 F3600 X151.816 Y85.956
G0 X151.272 Y85.911
G0 X151.586 Y87.566
G0 X152.312 Y88.784
G0 X153.421 Y89.687
G0 X154.778 Y90.155
G0 X156.188 Y90.136
G0 X157.533 Y89.62
G0 X158.607 Y88.685
G0 X159.362 Y87.43
G0 X159.257 Y87.402
;TYPE:WALL-INNER
G1 F1800 X158.975 Y88.047 E19.86134
G1 X158.583 Y88.635 E19.88779
G1 X158.096 Y89.145 E19.91417
G1 X157.527 Y89.563 E19.94059
G1 X156.895 Y89.877 E19.967
G1 X156.218 Y90.077 E19.99341
G1 X155.514 Y90.155 E20.01991
G1 X154.807 Y90.109 E20.04642
G1 X154.12 Y89.941 E20.07289
G1 X153.61 Y89.72 E20.09368
G1 X153.099 Y89.412 E20.11601
G1 X152.801 Y89.196 E20.12978
G1 X152.346 Y88.747 E20.1537
